app/src/assets/illustrations/diving-helmet.svg

<svg width="512" height="512" viewBox="0 0 512 512" fill="none" xmlns="http://www.w3.org/2000/svg">
<g clip-path="url(#clip0_34_1412)">
<path d="M490.109 512H21.8905C15.5788 512 10.4628 506.884 10.4628 500.572C10.4628 439.605 59.8869 390.181 120.854 390.181H391.146C452.113 390.181 501.537 439.605 501.537 500.572C501.537 506.884 496.421 512 490.109 512Z" fill="url(#paint0_linear_34_1412)"/>
<path d="M391.146 390.181H120.854C106.138 390.181 92.0978 393.068 79.2586 398.295V422.059L169.2 512H490.11C496.421 512 501.537 506.884 501.537 500.572C501.537 439.605 452.113 390.181 391.146 390.181V390.181Z" fill="url(#paint1_linear_34_1412)"/>
<path d="M10.4628 500.572C10.4628 506.884 15.5788 512 21.8905 512H490.11C496.422 512 501.538 506.884 501.538 500.572C501.538 482.781 497.323 465.975 489.846 451.09H22.1545C14.6783 465.975 10.4628 482.781 10.4628 500.572Z" fill="url(#paint2_linear_34_1412)"/>
<path d="M420.153 379.561C389.173 369.423 373.039 335.027 385.657 304.972C387.3 301.059 389.097 297.728 391.058 295.242C414.128 265.987 427.895 229.056 427.895 188.905C427.895 92.8025 349.031 15.12 252.491 17.0455C159.384 18.9008 84.2671 95.4739 84.1055 188.599C84.0352 228.863 97.812 265.905 120.936 295.232C122.898 297.72 124.696 301.055 126.339 304.971C138.955 335.028 122.824 369.422 91.8437 379.561C79.368 383.644 72.1107 388.524 72.1107 394.202C72.1107 434.626 154.44 467.397 256 467.397C357.56 467.397 439.889 434.627 439.889 394.202C439.889 388.525 432.63 383.644 420.153 379.561V379.561Z" fill="url(#paint3_linear_34_1412)"/>
<path d="M429.829 418.128L110.042 98.3411C93.6618 124.615 84.1627 155.563 84.1045 188.6C84.0342 228.864 97.811 265.906 120.935 295.233C122.897 297.721 124.695 301.056 126.339 304.972C138.955 335.029 122.824 369.423 91.8437 379.562C79.368 383.645 72.1107 388.525 72.1107 394.203C72.1107 434.627 154.44 467.398 256 467.398C336.508 467.398 404.923 446.802 429.829 418.128Z" fill="url(#paint4_linear_34_1412)"/>
<path d="M252.49 17.0445C222.131 17.6499 193.687 26.2043 169.128 40.6809L404.3 275.854C419.292 250.345 427.894 220.632 427.894 188.905C427.894 92.8025 349.03 15.12 252.49 17.0445V17.0445Z" fill="url(#paint5_linear_34_1412)"/>
<path d="M391.057 295.241C412.077 268.585 425.37 235.556 427.566 199.527L344.21 116.171C323.228 92.9741 292.892 78.3982 259.151 78.3982C195.825 78.3982 144.489 129.734 144.489 193.06C144.489 226.802 159.065 257.136 182.262 278.118L358.992 454.848C407.806 441.688 439.889 419.437 439.889 394.203C439.889 388.525 432.631 383.644 420.153 379.561C389.173 369.423 373.039 335.027 385.657 304.972C387.3 301.059 389.097 297.727 391.057 295.241V295.241Z" fill="url(#paint6_linear_34_1412)"/>
<path d="M335.646 42.483H176.354C167.864 42.483 160.981 35.6001 160.981 27.1099C160.981 12.1374 173.118 0 188.091 0H323.909C338.882 0 351.019 12.1374 351.019 27.1099C351.019 35.6011 344.137 42.483 335.646 42.483V42.483Z" fill="url(#paint7_linear_34_1412)"/>
<path d="M114.595 109.258V268.551C114.595 277.041 107.712 283.924 99.2216 283.924C84.2491 283.924 72.1117 271.787 72.1117 256.814V120.996C72.1117 106.023 84.2491 93.8857 99.2216 93.8857C107.712 93.8847 114.595 100.768 114.595 109.258V109.258Z" fill="url(#paint8_linear_34_1412)"/>
<path d="M397.405 109.258V268.551C397.405 277.041 404.288 283.924 412.778 283.924C427.751 283.924 439.888 271.787 439.888 256.814V120.996C439.888 106.023 427.751 93.8857 412.778 93.8857C404.288 93.8847 397.405 100.768 397.405 109.258V109.258Z" fill="url(#paint9_linear_34_1412)"/>
<path d="M256 303.567C319.326 303.567 370.662 252.231 370.662 188.905C370.662 125.579 319.326 74.2429 256 74.2429C192.674 74.2429 141.338 125.579 141.338 188.905C141.338 252.231 192.674 303.567 256 303.567Z" fill="url(#paint10_linear_34_1412)"/>
<path d="M256 285.944C309.593 285.944 353.039 242.498 353.039 188.905C353.039 135.312 309.593 91.8657 256 91.8657C202.407 91.8657 158.961 135.312 158.961 188.905C158.961 242.498 202.407 285.944 256 285.944Z" fill="url(#paint11_linear_34_1412)"/>
<path d="M256 269.983C300.778 269.983 337.078 233.683 337.078 188.905C337.078 144.127 300.778 107.827 256 107.827C211.222 107.827 174.922 144.127 174.922 188.905C174.922 233.683 211.222 269.983 256 269.983Z" fill="url(#paint12_linear_34_1412)"/>
<path d="M446.805 392.353C445.351 387.496 438.997 386.236 435.495 389.903C408.719 417.939 338.462 437.949 255.999 437.949C173.536 437.949 103.28 417.939 76.5038 389.903C73.0021 386.237 66.6483 387.497 65.1936 392.353C65.0125 392.953 64.9201 393.576 64.9196 394.203C64.9196 434.627 150.469 467.398 255.999 467.398C361.529 467.398 447.078 434.628 447.078 394.203C447.079 393.576 446.987 392.953 446.805 392.353V392.353Z" fill="url(#paint13_linear_34_1412)"/>
<g opacity="0.5">
<path d="M39.8597 112.96C56.0957 112.96 69.2575 99.7984 69.2575 83.5624C69.2575 67.3264 56.0957 54.1646 39.8597 54.1646C23.6237 54.1646 10.4619 67.3264 10.4619 83.5624C10.4619 99.7984 23.6237 112.96 39.8597 112.96Z" fill="url(#paint14_linear_34_1412)"/>
<path d="M52.2149 149.997C61.6273 149.997 69.2575 142.367 69.2575 132.954C69.2575 123.542 61.6273 115.912 52.2149 115.912C42.8026 115.912 35.1724 123.542 35.1724 132.954C35.1724 142.367 42.8026 149.997 52.2149 149.997Z" fill="url(#paint15_linear_34_1412)"/>
<path d="M76.9987 53.3615C86.4111 53.3615 94.0413 45.7313 94.0413 36.3189C94.0413 26.9066 86.4111 19.2764 76.9987 19.2764C67.5864 19.2764 59.9562 26.9066 59.9562 36.3189C59.9562 45.7313 67.5864 53.3615 76.9987 53.3615Z" fill="url(#paint16_linear_34_1412)"/>
</g>
<path d="M127.808 408.515C135.755 408.515 142.197 402.072 142.197 394.126C142.197 386.179 135.755 379.736 127.808 379.736C119.861 379.736 113.419 386.179 113.419 394.126C113.419 402.072 119.861 408.515 127.808 408.515Z" fill="url(#paint17_linear_34_1412)"/>
<path d="M191.403 420.562C199.35 420.562 205.792 414.12 205.792 406.173C205.792 398.226 199.35 391.783 191.403 391.783C183.456 391.783 177.013 398.226 177.013 406.173C177.013 414.12 183.456 420.562 191.403 420.562Z" fill="url(#paint18_linear_34_1412)"/>
<path d="M256 429.597C263.947 429.597 270.389 423.155 270.389 415.208C270.389 407.261 263.947 400.819 256 400.819C248.053 400.819 241.611 407.261 241.611 415.208C241.611 423.155 248.053 429.597 256 429.597Z" fill="url(#paint19_linear_34_1412)"/>
<path d="M320.597 420.562C328.544 420.562 334.987 414.12 334.987 406.173C334.987 398.226 328.544 391.783 320.597 391.783C312.65 391.783 306.208 398.226 306.208 406.173C306.208 414.12 312.65 420.562 320.597 420.562Z" fill="url(#paint20_linear_34_1412)"/>
<path d="M384.192 408.515C392.139 408.515 398.581 402.072 398.581 394.126C398.581 386.179 392.139 379.736 384.192 379.736C376.245 379.736 369.802 386.179 369.802 394.126C369.802 402.072 376.245 408.515 384.192 408.515Z" fill="url(#paint21_linear_34_1412)"/>
</g>
<defs>
<linearGradient id="paint0_linear_34_1412" x1="256" y1="423.636" x2="256" y2="506.516" gradientUnits="userSpaceOnUse">
<stop stop-color="#537983"/>
<stop offset="1" stop-color="#3E5959"/>
</linearGradient>
<linearGradient id="paint1_linear_34_1412" x1="295.259" y1="525.556" x2="287.898" y2="425.164" gradientUnits="userSpaceOnUse">
<stop stop-color="#3E5959" stop-opacity="0"/>
<stop offset="1" stop-color="#384949"/>
</linearGradient>
<linearGradient id="paint2_linear_34_1412" x1="256" y1="476.528" x2="256" y2="508.716" gradientUnits="userSpaceOnUse">
<stop stop-color="#3E5959" stop-opacity="0"/>
<stop offset="1" stop-color="#384949"/>
</linearGradient>
<linearGradient id="paint3_linear_34_1412" x1="139.266" y1="152.259" x2="405.698" y2="418.69" gradientUnits="userSpaceOnUse">
<stop stop-color="#FFE177"/>
<stop offset="1" stop-color="#FE9738"/>
</linearGradient>
<linearGradient id="paint4_linear_34_1412" x1="178.431" y1="305.051" x2="0.402543" y2="210.012" gradientUnits="userSpaceOnUse">
<stop stop-color="#FE9738" stop-opacity="0"/>
<stop offset="1" stop-color="#FE7701"/>
</linearGradient>
<linearGradient id="paint5_linear_34_1412" x1="298.511" y1="94.3686" x2="298.511" y2="-15.3952" gradientUnits="userSpaceOnUse">
<stop stop-color="#FE9738" stop-opacity="0"/>
<stop offset="1" stop-color="#FE7701"/>
</linearGradient>
<linearGradient id="paint6_linear_34_1412" x1="398.526" y1="331.845" x2="264" y2="198.658" gradientUnits="userSpaceOnUse">
<stop stop-color="#FE9738" stop-opacity="0"/>
<stop offset="1" stop-color="#FE7701"/>
</linearGradient>
<linearGradient id="paint7_linear_34_1412" x1="252.359" y1="11.2811" x2="261.059" y2="47.4222" gradientUnits="userSpaceOnUse">
<stop stop-color="#EDF5FF"/>
<stop offset="1" stop-color="#C7E9FF"/>
</linearGradient>
<linearGradient id="paint8_linear_34_1412" x1="67.9765" y1="160.09" x2="122.272" y2="214.386" gradientUnits="userSpaceOnUse">
<stop stop-color="#EDF5FF"/>
<stop offset="1" stop-color="#C7E9FF"/>
</linearGradient>
<linearGradient id="paint9_linear_34_1412" x1="384.802" y1="158.497" x2="426.973" y2="200.668" gradientUnits="userSpaceOnUse">
<stop stop-color="#EDF5FF"/>
<stop offset="1" stop-color="#C7E9FF"/>
</linearGradient>
<linearGradient id="paint10_linear_34_1412" x1="197.382" y1="130.286" x2="331.108" y2="264.013" gradientUnits="userSpaceOnUse">
<stop stop-color="#EDF5FF"/>
<stop offset="1" stop-color="#C7E9FF"/>
</linearGradient>
<linearGradient id="paint11_linear_34_1412" x1="305.61" y1="238.514" x2="192.436" y2="125.339" gradientUnits="userSpaceOnUse">
<stop stop-color="#EDF5FF"/>
<stop offset="1" stop-color="#C7E9FF"/>
</linearGradient>
<linearGradient id="paint12_linear_34_1412" x1="229.396" y1="162.301" x2="295.028" y2="227.933" gradientUnits="userSpaceOnUse">
<stop stop-color="#537983"/>
<stop offset="1" stop-color="#3E5959"/>
</linearGradient>
<linearGradient id="paint13_linear_34_1412" x1="256" y1="432.356" x2="256" y2="472.518" gradientUnits="userSpaceOnUse">
<stop stop-color="#FFE177"/>
<stop offset="1" stop-color="#FE9738"/>
</linearGradient>
<linearGradient id="paint14_linear_34_1412" x1="27.7825" y1="71.4862" x2="68.9654" y2="112.668" gradientUnits="userSpaceOnUse">
<stop stop-color="#EDF5FF"/>
<stop offset="1" stop-color="#C7E9FF"/>
</linearGradient>
<linearGradient id="paint15_linear_34_1412" x1="42.6335" y1="123.373" x2="60.938" y2="141.678" gradientUnits="userSpaceOnUse">
<stop stop-color="#EDF5FF"/>
<stop offset="1" stop-color="#C7E9FF"/>
</linearGradient>
<linearGradient id="paint16_linear_34_1412" x1="67.4173" y1="26.7375" x2="85.7218" y2="45.042" gradientUnits="userSpaceOnUse">
<stop stop-color="#EDF5FF"/>
<stop offset="1" stop-color="#C7E9FF"/>
</linearGradient>
<linearGradient id="paint17_linear_34_1412" x1="127.808" y1="414.62" x2="127.808" y2="391.042" gradientUnits="userSpaceOnUse">
<stop stop-color="#FFE177"/>
<stop offset="1" stop-color="#FE9738"/>
</linearGradient>
<linearGradient id="paint18_linear_34_1412" x1="191.403" y1="426.667" x2="191.403" y2="403.09" gradientUnits="userSpaceOnUse">
<stop stop-color="#FFE177"/>
<stop offset="1" stop-color="#FE9738"/>
</linearGradient>
<linearGradient id="paint19_linear_34_1412" x1="256" y1="435.702" x2="256" y2="412.125" gradientUnits="userSpaceOnUse">
<stop stop-color="#FFE177"/>
<stop offset="1" stop-color="#FE9738"/>
</linearGradient>
<linearGradient id="paint20_linear_34_1412" x1="320.597" y1="426.667" x2="320.597" y2="403.09" gradientUnits="userSpaceOnUse">
<stop stop-color="#FFE177"/>
<stop offset="1" stop-color="#FE9738"/>
</linearGradient>
<linearGradient id="paint21_linear_34_1412" x1="384.192" y1="414.62" x2="384.192" y2="391.042" gradientUnits="userSpaceOnUse">
<stop stop-color="#FFE177"/>
<stop offset="1" stop-color="#FE9738"/>
</linearGradient>
<clipPath id="clip0_34_1412">
<rect width="512" height="512" fill="white"/>
</clipPath>
</defs>
</svg>

<svg width="512" height="512" viewBox="0 0 512 512" fill="none" xmlns="http://www.w3.org/2000/svg"><g clip-path="url(#clip0_34_1412)"><path d="M490.109 512H21.89c-6.311 0-11.427-5.116-11.427-11.428 0-60.967 49.424-110.391 110.391-110.391h270.292c60.967 0 110.391 49.424 110.391 110.391 0 6.312-5.116 11.428-11.428 11.428z" fill="url(#paint0_linear_34_1412)"/><path d="M391.146 390.181H120.854c-14.716 0-28.756 2.887-41.595 8.114v23.764L169.2 512h320.91c6.311 0 11.427-5.116 11.427-11.428 0-60.967-49.424-110.391-110.391-110.391z" fill="url(#paint1_linear_34_1412)"/><path d="M10.463 500.572c0 6.312 5.116 11.428 11.428 11.428H490.11c6.312 0 11.428-5.116 11.428-11.428 0-17.791-4.215-34.597-11.692-49.482H22.154c-7.476 14.885-11.691 31.691-11.691 49.482z" fill="url(#paint2_linear_34_1412)"/><path d="M420.153 379.561c-30.98-10.138-47.114-44.534-34.496-74.589 1.643-3.913 3.44-7.244 5.401-9.73 23.07-29.255 36.837-66.186 36.837-106.337 0-96.103-78.864-173.785-175.404-171.86C159.384 18.902 84.267 95.475 84.105 188.6c-.07 40.264 13.707 77.306 36.831 106.633 1.962 2.488 3.76 5.823 5.403 9.739 12.616 30.057-3.515 64.451-34.495 74.59-12.476 4.083-19.733 8.963-19.733 14.641 0 40.424 82.329 73.195 183.889 73.195 101.56 0 183.889-32.77 183.889-73.195 0-5.677-7.259-10.558-19.736-14.641z" fill="url(#paint3_linear_34_1412)"/><path d="M429.829 418.128L110.042 98.341c-16.38 26.274-25.88 57.222-25.938 90.259-.07 40.264 13.707 77.306 36.831 106.633 1.962 2.488 3.76 5.823 5.404 9.739 12.616 30.057-3.515 64.451-34.495 74.59-12.476 4.083-19.733 8.963-19.733 14.641 0 40.424 82.329 73.195 183.889 73.195 80.508 0 148.923-20.596 173.829-49.27z" fill="url(#paint4_linear_34_1412)"/><path d="M252.49 17.044c-30.359.606-58.803 9.16-83.362 23.637L404.3 275.854c14.992-25.509 23.594-55.222 23.594-86.949 0-96.103-78.864-173.785-175.404-171.86z" fill="url(#paint5_linear_34_1412)"/><path d="M391.057 295.241c21.02-26.656 34.313-59.685 36.509-95.714l-83.356-83.356c-20.982-23.197-51.318-37.773-85.059-37.773-63.326 0-114.662 51.336-114.662 114.662 0 33.742 14.576 64.076 37.773 85.058l176.73 176.73c48.814-13.16 80.897-35.411 80.897-60.645 0-5.678-7.258-10.559-19.736-14.642-30.98-10.138-47.114-44.534-34.496-74.589 1.643-3.913 3.44-7.245 5.4-9.731z" fill="url(#paint6_linear_34_1412)"/><path d="M335.646 42.483H176.354c-8.49 0-15.373-6.883-15.373-15.373 0-14.973 12.137-27.11 27.11-27.11h135.818c14.973 0 27.11 12.137 27.11 27.11 0 8.491-6.882 15.373-15.373 15.373z" fill="url(#paint7_linear_34_1412)"/><path d="M114.595 109.258v159.293c0 8.49-6.883 15.373-15.373 15.373-14.973 0-27.11-12.137-27.11-27.11V120.996c0-14.973 12.137-27.11 27.11-27.11 8.49-.001 15.373 6.882 15.373 15.372z" fill="url(#paint8_linear_34_1412)"/><path d="M397.405 109.258v159.293c0 8.49 6.883 15.373 15.373 15.373 14.973 0 27.11-12.137 27.11-27.11V120.996c0-14.973-12.137-27.11-27.11-27.11-8.49-.001-15.373 6.882-15.373 15.372z" fill="url(#paint9_linear_34_1412)"/><path d="M256 303.567c63.326 0 114.662-51.336 114.662-114.662 0-63.326-51.336-114.662-114.662-114.662-63.326 0-114.662 51.336-114.662 114.662 0 63.326 51.336 114.662 114.662 114.662z" fill="url(#paint10_linear_34_1412)"/><path d="M256 285.944c53.593 0 97.039-43.446 97.039-97.039S309.593 91.865 256 91.865s-97.039 43.447-97.039 97.04 43.446 97.039 97.039 97.039z" fill="url(#paint11_linear_34_1412)"/><path d="M256 269.983c44.778 0 81.078-36.3 81.078-81.078 0-44.778-36.3-81.078-81.078-81.078-44.778 0-81.078 36.3-81.078 81.078 0 44.778 36.3 81.078 81.078 81.078z" fill="url(#paint12_linear_34_1412)"/><path d="M446.805 392.353c-1.454-4.857-7.808-6.117-11.31-2.45-26.776 28.036-97.033 48.046-179.496 48.046-82.463 0-152.719-20.01-179.495-48.046-3.502-3.666-9.856-2.406-11.31 2.45a6.419 6.419 0 00-.274 1.85c0 40.424 85.549 73.195 191.079 73.195s191.079-32.77 191.079-73.195a6.336 6.336 0 00-.273-1.85z" fill="url(#paint13_linear_34_1412)"/><g opacity=".5"><path d="M39.86 112.96c16.236 0 29.397-13.162 29.397-29.398 0-16.236-13.161-29.397-29.397-29.397-16.236 0-29.398 13.161-29.398 29.397 0 16.236 13.162 29.398 29.398 29.398z" fill="url(#paint14_linear_34_1412)"/><path d="M52.215 149.997c9.412 0 17.042-7.63 17.042-17.043 0-9.412-7.63-17.042-17.042-17.042-9.412 0-17.043 7.63-17.043 17.042 0 9.413 7.63 17.043 17.043 17.043z" fill="url(#paint15_linear_34_1412)"/><path d="M76.999 53.361c9.412 0 17.042-7.63 17.042-17.042 0-9.412-7.63-17.043-17.042-17.043-9.413 0-17.043 7.63-17.043 17.043 0 9.412 7.63 17.042 17.043 17.042z" fill="url(#paint16_linear_34_1412)"/></g><path d="M127.808 408.515c7.947 0 14.389-6.443 14.389-14.389 0-7.947-6.442-14.39-14.389-14.39-7.947 0-14.389 6.443-14.389 14.39 0 7.946 6.442 14.389 14.389 14.389z" fill="url(#paint17_linear_34_1412)"/><path d="M191.403 420.562c7.947 0 14.389-6.442 14.389-14.389 0-7.947-6.442-14.39-14.389-14.39-7.947 0-14.39 6.443-14.39 14.39 0 7.947 6.443 14.389 14.39 14.389z" fill="url(#paint18_linear_34_1412)"/><path d="M256 429.597c7.947 0 14.389-6.442 14.389-14.389 0-7.947-6.442-14.389-14.389-14.389-7.947 0-14.389 6.442-14.389 14.389 0 7.947 6.442 14.389 14.389 14.389z" fill="url(#paint19_linear_34_1412)"/><path d="M320.597 420.562c7.947 0 14.39-6.442 14.39-14.389 0-7.947-6.443-14.39-14.39-14.39-7.947 0-14.389 6.443-14.389 14.39 0 7.947 6.442 14.389 14.389 14.389z" fill="url(#paint20_linear_34_1412)"/><path d="M384.192 408.515c7.947 0 14.389-6.443 14.389-14.389 0-7.947-6.442-14.39-14.389-14.39-7.947 0-14.39 6.443-14.39 14.39 0 7.946 6.443 14.389 14.39 14.389z" fill="url(#paint21_linear_34_1412)"/></g><defs><linearGradient id="paint0_linear_34_1412" x1="256" y1="423.636" x2="256" y2="506.516" gradientUnits="userSpaceOnUse"><stop stop-color="#537983"/><stop offset="1" stop-color="#3E5959"/></linearGradient><linearGradient id="paint1_linear_34_1412" x1="295.259" y1="525.556" x2="287.898" y2="425.164" gradientUnits="userSpaceOnUse"><stop stop-color="#3E5959" stop-opacity="0"/><stop offset="1" stop-color="#384949"/></linearGradient><linearGradient id="paint2_linear_34_1412" x1="256" y1="476.528" x2="256" y2="508.716" gradientUnits="userSpaceOnUse"><stop stop-color="#3E5959" stop-opacity="0"/><stop offset="1" stop-color="#384949"/></linearGradient><linearGradient id="paint3_linear_34_1412" x1="139.266" y1="152.259" x2="405.698" y2="418.69" gradientUnits="userSpaceOnUse"><stop stop-color="#FFE177"/><stop offset="1" stop-color="#FE9738"/></linearGradient><linearGradient id="paint4_linear_34_1412" x1="178.431" y1="305.051" x2=".403" y2="210.012" gradientUnits="userSpaceOnUse"><stop stop-color="#FE9738" stop-opacity="0"/><stop offset="1" stop-color="#FE7701"/></linearGradient><linearGradient id="paint5_linear_34_1412" x1="298.511" y1="94.369" x2="298.511" y2="-15.395" gradientUnits="userSpaceOnUse"><stop stop-color="#FE9738" stop-opacity="0"/><stop offset="1" stop-color="#FE7701"/></linearGradient><linearGradient id="paint6_linear_34_1412" x1="398.526" y1="331.845" x2="264" y2="198.658" gradientUnits="userSpaceOnUse"><stop stop-color="#FE9738" stop-opacity="0"/><stop offset="1" stop-color="#FE7701"/></linearGradient><linearGradient id="paint7_linear_34_1412" x1="252.359" y1="11.281" x2="261.059" y2="47.422" gradientUnits="userSpaceOnUse"><stop stop-color="#EDF5FF"/><stop offset="1" stop-color="#C7E9FF"/></linearGradient><linearGradient id="paint8_linear_34_1412" x1="67.977" y1="160.09" x2="122.272" y2="214.386" gradientUnits="userSpaceOnUse"><stop stop-color="#EDF5FF"/><stop offset="1" stop-color="#C7E9FF"/></linearGradient><linearGradient id="paint9_linear_34_1412" x1="384.802" y1="158.497" x2="426.973" y2="200.668" gradientUnits="userSpaceOnUse"><stop stop-color="#EDF5FF"/><stop offset="1" stop-color="#C7E9FF"/></linearGradient><linearGradient id="paint10_linear_34_1412" x1="197.382" y1="130.286" x2="331.108" y2="264.013" gradientUnits="userSpaceOnUse"><stop stop-color="#EDF5FF"/><stop offset="1" stop-color="#C7E9FF"/></linearGradient><linearGradient id="paint11_linear_34_1412" x1="305.61" y1="238.514" x2="192.436" y2="125.339" gradientUnits="userSpaceOnUse"><stop stop-color="#EDF5FF"/><stop offset="1" stop-color="#C7E9FF"/></linearGradient><linearGradient id="paint12_linear_34_1412" x1="229.396" y1="162.301" x2="295.028" y2="227.933" gradientUnits="userSpaceOnUse"><stop stop-color="#537983"/><stop offset="1" stop-color="#3E5959"/></linearGradient><linearGradient id="paint13_linear_34_1412" x1="256" y1="432.356" x2="256" y2="472.518" gradientUnits="userSpaceOnUse"><stop stop-color="#FFE177"/><stop offset="1" stop-color="#FE9738"/></linearGradient><linearGradient id="paint14_linear_34_1412" x1="27.782" y1="71.486" x2="68.965" y2="112.668" gradientUnits="userSpaceOnUse"><stop stop-color="#EDF5FF"/><stop offset="1" stop-color="#C7E9FF"/></linearGradient><linearGradient id="paint15_linear_34_1412" x1="42.633" y1="123.373" x2="60.938" y2="141.678" gradientUnits="userSpaceOnUse"><stop stop-color="#EDF5FF"/><stop offset="1" stop-color="#C7E9FF"/></linearGradient><linearGradient id="paint16_linear_34_1412" x1="67.417" y1="26.738" x2="85.722" y2="45.042" gradientUnits="userSpaceOnUse"><stop stop-color="#EDF5FF"/><stop offset="1" stop-color="#C7E9FF"/></linearGradient><linearGradient id="paint17_linear_34_1412" x1="127.808" y1="414.62" x2="127.808" y2="391.042" gradientUnits="userSpaceOnUse"><stop stop-color="#FFE177"/><stop offset="1" stop-color="#FE9738"/></linearGradient><linearGradient id="paint18_linear_34_1412" x1="191.403" y1="426.667" x2="191.403" y2="403.09" gradientUnits="userSpaceOnUse"><stop stop-color="#FFE177"/><stop offset="1" stop-color="#FE9738"/></linearGradient><linearGradient id="paint19_linear_34_1412" x1="256" y1="435.702" x2="256" y2="412.125" gradientUnits="userSpaceOnUse"><stop stop-color="#FFE177"/><stop offset="1" stop-color="#FE9738"/></linearGradient><linearGradient id="paint20_linear_34_1412" x1="320.597" y1="426.667" x2="320.597" y2="403.09" gradientUnits="userSpaceOnUse"><stop stop-color="#FFE177"/><stop offset="1" stop-color="#FE9738"/></linearGradient><linearGradient id="paint21_linear_34_1412" x1="384.192" y1="414.62" x2="384.192" y2="391.042" gradientUnits="userSpaceOnUse"><stop stop-color="#FFE177"/><stop offset="1" stop-color="#FE9738"/></linearGradient><clipPath id="clip0_34_1412"><path fill="#fff" d="M0 0h512v512H0z"/></clipPath></defs></svg>
